svg/文件夹-私密.svg

<svg width="24" height="24" viewBox="0 0 24 24" fill="none" xmlns="http://www.w3.org/2000/svg"><rect x="-114.971" y="-52.8101" width="334.406" height="150.877" stroke="#F97316"/><path d="M21.5 11.5V7C21.5 6.4477 21.0523 6 20.5 6H12L9.5 3H3.5C2.94771 3 2.5 3.44771 2.5 4V20C2.5 20.5523 2.94771 21 3.5 21H11" stroke="#0D131A" stroke-width="1.5" stroke-linecap="round" stroke-linejoin="round"/><path d="M21.5 17H14.5V21H21.5V17Z" stroke="#0D131A" stroke-width="1.5" stroke-linecap="round" stroke-linejoin="round"/><path d="M19.5 17V15.5C19.5 14.6715 18.8285 14 18 14C17.1715 14 16.5 14.6715 16.5 15.5V17" stroke="#0D131A" stroke-width="1.5" stroke-linecap="round" stroke-linejoin="round"/></svg>

<svg fill="none" viewBox="0 0 24 24"><path stroke="#0D131A" stroke-linecap="round" stroke-linejoin="round" stroke-width="1.5" d="M21.5 11.5V7a1 1 0 0 0-1-1H12L9.5 3h-6a1 1 0 0 0-1 1v16a1 1 0 0 0 1 1H11"/><path stroke="#0D131A" stroke-linecap="round" stroke-linejoin="round" stroke-width="1.5" d="M21.5 17h-7v4h7z"/><path stroke="#0D131A" stroke-linecap="round" stroke-linejoin="round" stroke-width="1.5" d="M19.5 17v-1.5a1.5 1.5 0 1 0-3 0V17"/></svg>
